X: 1
T: King of the Blind
B: A COLECTION of the most Celebrated Irish Tunes2 p.a
M: 3/4
L: 1/8
K: Edor
e2 (ed) B2 | A2 B2 D2 | E2 G2 G2 | TG4 A2 |\
BA Bd e2 | Td2 B2 ba | g2 e2 e2 | Te4 ga |
b2 a2 ga | b2 e2 ef | g2 f2 ef | g2 B2 AG |\
A2 AG E2 | d2 BA G2 | A2 Bd e2 | Te4 (df) |
g4 f2 | g2 B2 G2 | A4 A2 | A2 Bd e2 |\
Te4 B2 | A2 (BA) (GE) | D2 E2 (GA) | TG6 :|
|: e2 d2 B2 | g2 g2 d2 | e2 d2 B2 | b2 a2 g2 |\
e2 dB ef | d2 B2 (AG) | A2 Bd e2 | Te4 (Bd) |
e2 e2 (dB) | g4 (eg) | a4 (ab) | g2 e2 (dB) |\
Te4 ag | e2 (dB) (AG) | A2 Bd e2 | Te4 g2 |
ga ge d2 | de dB A2 | AB AG E2 | G3 A GE |\
d3 e dB | A2 B2 D2 | E2 G2 G2 | G6 :|
